X: 31989
T: Peekaboo
R: polka
M: 2/4
K: Aminor
AB cd|ec Ac|Bd cB|AB cd|
AB cd|ec Ac|Bd cB|A2 A2|
AB cg|de cA|Bd cB|AB cd|
AB cg|de cA|Bd cB|A2 A2||
ef ec|A/B/c/d/ ec|Bd cB|AB cd|
ef ec|A/B/c/d/ ec|Bd cB|A2 A2|
ef ec|A/B/c/d/ ec|e/d/c/B/ Ac/B/|c/B/A c/B/A/G/|
AB cg|de cA|Bd cB|A2 A2||
ab ag|ag ea|ge dc|A/B/c/d/ eg|
ab ag|ag ed|ce dB|A2 A2|

